X:1024
T:The Tailor's Reel
C:Charlie Sherrit
S:Book, Charlie Sherrit's Collection (1986)
Z:Nigel Gatherer
M:4/4
L:1/8
K:Amix
A2 ce a2 fa | e2 ce fece | A2 ce a2 fe | dBcA BGGB | 
A2 ce a2 fa | e2 ce fece | defd  cdec | dBcA BGGB :|
(3cBA eA fAeA | afef cAfe | (3cBA eA fAec | dBGB dBfe |
(3cBA eA fAeA | afef cAfe | defd  cdec | dBcA BGGB :|
<end>
<start>
